src/components/Icon/svg-icon/main/mail-bulk.svg

<svg xmlns="http://www.w3.org/2000/svg" width="24" height="24"><path fill="#677078" d="M22 6H6c-1.1 0-1.99.9-1.99 2L4 20c0 1.1.9 2 2 2h16c1.1 0 2-.9 2-2V8c0-1.1-.9-2-2-2zm-8-4v2H2v14H0V4c0-1.1.9-2 2-2h12zm8 6v2l-8 5-8-5V8l8 5 8-5z"/></svg>

<svg xmlns="http://www.w3.org/2000/svg" width="24" height="24" viewBox="0 0 24 24">
  <path fill="#677078" d="M22,6 L6,6 C4.9,6 4.01,6.9 4.01,8 L4,20 C4,21.1 4.9,22 6,22 L22,22 C23.1,22 24,21.1 24,20 L24,8 C24,6.9 23.1,6 22,6 Z M14,2 L14,4 L2,4 L2,18 L0,18 L0,4 C0,2.9 0.9,2 2,2 L2,2 L14,2 Z M22,8 L22,10 L14,15 L6,10 L6,8 L14,13 L22,8 Z"/>
</svg>
